X: 39991
T: Three Half Tunes
R: jig
M: 6/8
K: Dmajor
D2D d2c|(B2A) (GFE)|(FGA) (B2A)|(FGA) B2A|
D2D d2c|(Bcd) (FGB)|A2d A2F|(EFG) (FED)|
(DFA) d2c|(Bcd) (GAB)|A2d (AGF)|(EFG) (FED):|

